data/pieces/fancy/blackKnight.svg

<svg xmlns="http://www.w3.org/2000/svg" width="1000pt" height="1000pt" viewBox="0 0 1000 1000"><path d="M84 619c0-58 16-79 34-101 21-26 43-58 60-92 16-32 33-62 54-90 10-56 24-95 44-130l-6-47c-1-9-2-23-2-33 0-8 2-26 15-26 18 0 52 50 65 74h24c5-34 15-78 30-78 14 0 23 19 30 36 8 20 14 29 30 43 13 11 19 16 30 16 7 0 13 0 19-1s13-2 21-2c20 0 50 4 50 11v19c47 5 93 15 93 23 0 5-17 11-29 15v3c28 5 100 29 100 42 0 8-22 11-39 13l-1 2c30 12 94 69 94 85 0 8-22 10-37 10l-1 3c28 20 82 80 82 96 0 3-1 4-4 4-4 0-11-1-17-2-7-2-15-3-20-3l-2 3c25 24 73 76 73 96 0 2-1 4-5 4s-11-2-19-5c-7-3-15-6-20-6l-1 2c22 23 53 78 53 97 0 3-2 5-5 5s-9-1-16-5c-5-3-12-6-16-7l-1 2c26 37 50 80 50 96 0 2-1 4-5 4s-11-2-19-5c-5-2-13-4-17-5l-1 2c16 21 31 52 32 79H286c0-74 34-123 86-182 45-51 63-79 76-148l-6-4c-26 17-52 22-72 22-16 22-24 28-50 46-25 17-41 36-52 66-12 33-31 64-63 64-29 0-40-8-50-21-36-13-71-35-71-90" style="stroke-width:2;stroke-linecap:butt;stroke-linejoin:miter;stroke:#fff;stroke-opacity:1;stroke-miterlimit:10;fill-rule:nonzero;fill:#fff;fill-opacity:1"/><path d="M84 619c0-58 16-79 34-101 21-26 43-58 60-92 16-32 33-62 54-90 10-56 24-95 44-130l-6-47c-1-9-2-23-2-33 0-8 2-26 15-26 18 0 52 50 65 74h24c5-34 15-78 30-78 14 0 23 19 30 36 8 20 14 29 30 43 13 11 19 16 30 16 7 0 13 0 19-1s13-2 21-2c20 0 50 4 50 11v19c47 5 93 15 93 23 0 5-17 11-29 15v3c28 5 100 29 100 42 0 8-22 11-39 13l-1 2c30 12 94 69 94 85 0 8-22 10-37 10l-1 3c28 20 82 80 82 96 0 3-1 4-4 4-4 0-11-1-17-2-7-2-15-3-20-3l-2 3c25 24 73 76 73 96 0 2-1 4-5 4s-11-2-19-5c-7-3-15-6-20-6l-1 2c22 23 53 78 53 97 0 3-2 5-5 5s-9-1-16-5c-5-3-12-6-16-7l-1 2c26 37 50 80 50 96 0 2-1 4-5 4s-11-2-19-5c-5-2-13-4-17-5l-1 2c16 21 31 52 32 79H286c0-74 34-123 86-182 45-51 63-79 76-148l-6-4c-26 17-52 22-72 22-16 22-24 28-50 46-25 17-41 36-52 66-12 33-31 64-63 64-29 0-40-8-50-21-36-13-71-35-71-90m25-27c0 15 10 24 24 24 11 0 21-4 21-14 0-6-6-11-12-14s-8-10-8-17c0-6-3-11-7-11-11 0-18 17-18 32m62 44c0 14 12 26 23 26 6 0 8-4 9-10 1-5 3-8 5-11q6-7.5 6-15c0-11-9-20-22-20-14 0-21 16-21 30m77-235c0 4 3 7 7 7 7 0 9-4 10-8 5-17 15-42 36-54 14-8 24-10 36-10 5 0 14 1 17 3s6 3 10 3c9 0 9-6 9-10 0-10-15-14-27-14-19 0-40 5-54 14-24 15-44 48-44 69m28-168c0 4 3 5 5 5 6 0 9-5 12-10 3-6 8-12 15-12 5 0 5 6 5 12s0 12 5 12 9-4 12-14c4-12 15-20 20-20 3 0 4 1 4 4 0 4 0 7-1 11-1 3-1 7-1 9 0 3 0 6 4 6s7-6 9-17c1-9 5-21 12-31-16 0-36-1-48-5-24 12-53 32-53 50m16 143c0 9 15 11 26 11 14 0 26-5 26-18 0-8-5-15-15-18-19 1-37 15-37 25m176-142c316 50 338 443 338 632h32c0-212-41-608-364-654zm8 243c0 3 3 5 7 5 13 0 46-63 46-104 0-27-5-80-24-80-7 0-11 6-11 14 0 10 4 21 8 31 7 17 8 32 8 45 0 31-16 63-28 77-3 4-6 8-6 12m3 53c0 5 5 6 14 6 27 0 62-15 80-31 26-23 39-53 39-68 0-8-2-14-7-14-7 0-11 11-16 25-8 22-19 36-27 44-23 21-40 27-72 31-7 1-11 2-11 7m1-26c0 4 2 5 6 5 8 0 42-25 60-51 15-22 26-45 26-62 0-6-2-11-9-11-10 0-13 11-15 23-7 36-29 65-51 79-6 3-17 11-17 17" style="stroke:none;fill-rule:nonzero;fill:#000;fill-opacity:1"/></svg>

<?xml version="1.0" encoding="UTF-8"?>
<!--
	(c) 2010 Alexey Kryukov

    This work is free; you can redistribute it and/or modify
    it under the terms of the GNU General Public License as published by
    the Free Software Foundation; either version 2 of the License, or
    (at your option) any later version.

    This work is distributed in the hope that it will be useful,
    but WITHOUT ANY WARRANTY; without even the implied warranty of
    MERCHANTABILITY or FITNESS FOR A PARTICULAR PURPOSE.  See the
    GNU General Public License for more details.

    You should have received a copy of the GNU General Public License
    along with this program; if not, write to the Free Software
    Foundation, Inc., 51 Franklin Street, Fifth Floor, Boston, MA 02110-1301 USA
-->
<svg xmlns="http://www.w3.org/2000/svg" xmlns:xlink="http://www.w3.org/1999/xlink" width="1000pt" height="1000pt" viewBox="0 0 1000 1000" version="1.1">
<g id="surface0">
<path style="stroke-width:2;stroke-linecap:butt;stroke-linejoin:miter;stroke:white;stroke-opacity:1;stroke-miterlimit:10;fill-rule:nonzero;fill:white;fill-opacity:1;" d="M 84 619 C 84 561 100 540 118 518 C 139 492 161 460 178 426 C 194 394 211 364 232 336 C 242 280 256 241 276 206 L 270 159 C 269 150 268 136 268 126 C 268 118 270 100 283 100 C 301 100 335 150 348 174 L 372 174 C 377 140 387 96 402 96 C 416 96 425 115 432 132 C 440 152 446 161 462 175 C 475 186 481 191 492 191 C 499 191 505 191 511 190 C 517 189 524 188 532 188 C 552 188 582 192 582 199 L 582 218 C 629 223 675 233 675 241 C 675 246 658 252 646 256 L 646 259 C 674 264 746 288 746 301 C 746 309 724 312 707 314 L 706 316 C 736 328 800 385 800 401 C 800 409 778 411 763 411 L 762 414 C 790 434 844 494 844 510 C 844 513 843 514 840 514 C 836 514 829 513 823 512 C 816 510 808 509 803 509 L 801 512 C 826 536 874 588 874 608 C 874 610 873 612 869 612 C 865 612 858 610 850 607 C 843 604 835 601 830 601 L 829 603 C 851 626 882 681 882 700 C 882 703 880 705 877 705 C 874 705 868 704 861 700 C 856 697 849 694 845 693 L 844 695 C 870 732 894 775 894 791 C 894 793 893 795 889 795 C 885 795 878 793 870 790 C 865 788 857 786 853 785 L 852 787 C 868 808 883 839 884 866 L 286 866 C 286 792 320 743 372 684 C 417 633 435 605 448 536 L 442 532 C 416 549 390 554 370 554 C 354 576 346 582 320 600 C 295 617 279 636 268 666 C 256 699 237 730 205 730 C 176 730 165 722 155 709 C 119 696 84 674 84 619 "/>
<path style="stroke:none;fill-rule:nonzero;fill:black;fill-opacity:1;" d="M 84 619 C 84 561 100 540 118 518 C 139 492 161 460 178 426 C 194 394 211 364 232 336 C 242 280 256 241 276 206 L 270 159 C 269 150 268 136 268 126 C 268 118 270 100 283 100 C 301 100 335 150 348 174 L 372 174 C 377 140 387 96 402 96 C 416 96 425 115 432 132 C 440 152 446 161 462 175 C 475 186 481 191 492 191 C 499 191 505 191 511 190 C 517 189 524 188 532 188 C 552 188 582 192 582 199 L 582 218 C 629 223 675 233 675 241 C 675 246 658 252 646 256 L 646 259 C 674 264 746 288 746 301 C 746 309 724 312 707 314 L 706 316 C 736 328 800 385 800 401 C 800 409 778 411 763 411 L 762 414 C 790 434 844 494 844 510 C 844 513 843 514 840 514 C 836 514 829 513 823 512 C 816 510 808 509 803 509 L 801 512 C 826 536 874 588 874 608 C 874 610 873 612 869 612 C 865 612 858 610 850 607 C 843 604 835 601 830 601 L 829 603 C 851 626 882 681 882 700 C 882 703 880 705 877 705 C 874 705 868 704 861 700 C 856 697 849 694 845 693 L 844 695 C 870 732 894 775 894 791 C 894 793 893 795 889 795 C 885 795 878 793 870 790 C 865 788 857 786 853 785 L 852 787 C 868 808 883 839 884 866 L 286 866 C 286 792 320 743 372 684 C 417 633 435 605 448 536 L 442 532 C 416 549 390 554 370 554 C 354 576 346 582 320 600 C 295 617 279 636 268 666 C 256 699 237 730 205 730 C 176 730 165 722 155 709 C 119 696 84 674 84 619 M 109 592 C 109 607 119 616 133 616 C 144 616 154 612 154 602 C 154 596 148 591 142 588 C 136 585 134 578 134 571 C 134 565 131 560 127 560 C 116 560 109 577 109 592 M 171 636 C 171 650 183 662 194 662 C 200 662 202 658 203 652 C 204 647 206 644 208 641 C 212 636 214 631 214 626 C 214 615 205 606 192 606 C 178 606 171 622 171 636 M 248 401 C 248 405 251 408 255 408 C 262 408 264 404 265 400 C 270 383 280 358 301 346 C 315 338 325 336 337 336 C 342 336 351 337 354 339 C 357 341 360 342 364 342 C 373 342 373 336 373 332 C 373 322 358 318 346 318 C 327 318 306 323 292 332 C 268 347 248 380 248 401 M 276 233 C 276 237 279 238 281 238 C 287 238 290 233 293 228 C 296 222 301 216 308 216 C 313 216 313 222 313 228 C 313 234 313 240 318 240 C 323 240 327 236 330 226 C 334 214 345 206 350 206 C 353 206 354 207 354 210 C 354 214 354 217 353 221 C 352 224 352 228 352 230 C 352 233 352 236 356 236 C 360 236 363 230 365 219 C 366 210 370 198 377 188 C 361 188 341 187 329 183 C 305 195 276 215 276 233 M 292 376 C 292 385 307 387 318 387 C 332 387 344 382 344 369 C 344 361 339 354 329 351 C 310 352 292 366 292 376 M 468 234 C 784 284 806 677 806 866 L 838 866 C 838 654 797 258 474 212 L 468 234 M 476 477 C 476 480 479 482 483 482 C 496 482 529 419 529 378 C 529 351 524 298 505 298 C 498 298 494 304 494 312 C 494 322 498 333 502 343 C 509 360 510 375 510 388 C 510 419 494 451 482 465 C 479 469 476 473 476 477 M 479 530 C 479 535 484 536 493 536 C 520 536 555 521 573 505 C 599 482 612 452 612 437 C 612 429 610 423 605 423 C 598 423 594 434 589 448 C 581 470 570 484 562 492 C 539 513 522 519 490 523 C 483 524 479 525 479 530 M 480 504 C 480 508 482 509 486 509 C 494 509 528 484 546 458 C 561 436 572 413 572 396 C 572 390 570 385 563 385 C 553 385 550 396 548 408 C 541 444 519 473 497 487 C 491 490 480 498 480 504 "/>
</g>
</svg>
